actions/16/bookmark-new.svg

<?xml version="1.0" encoding="UTF-8" standalone="no"?>
<svg
   xmlns:dc="http://purl.org/dc/elements/1.1/"
   xmlns:cc="http://creativecommons.org/ns#"
   xmlns:rdf="http://www.w3.org/1999/02/22-rdf-syntax-ns#"
   xmlns:svg="http://www.w3.org/2000/svg"
   xmlns="http://www.w3.org/2000/svg"
   xmlns:xlink="http://www.w3.org/1999/xlink"
   id="svg3928"
   height="16"
   width="16"
   version="1.1">
  <defs
     id="defs3930">
    <linearGradient
       id="linearGradient4306">
      <stop
         id="stop4308"
         style="stop-color:#ffffff;stop-opacity:1"
         offset="0" />
      <stop
         id="stop4310"
         style="stop-color:#ffffff;stop-opacity:0.23529412"
         offset="0.15328069" />
      <stop
         id="stop4312"
         style="stop-color:#ffffff;stop-opacity:0.15686275"
         offset="0.67927718" />
      <stop
         id="stop4314"
         style="stop-color:#ffffff;stop-opacity:0.39215687"
         offset="1" />
    </linearGradient>
    <linearGradient
       id="linearGradient8265-821-176-38-919-66-249">
      <stop
         offset="0"
         style="stop-color:#ffffff;stop-opacity:0.27450982"
         id="stop2687" />
      <stop
         offset="1"
         style="stop-color:#ffffff;stop-opacity:0"
         id="stop2689" />
    </linearGradient>
    <linearGradient
       id="linearGradient3846">
      <stop
         offset="0"
         style="stop-color:#fff3cb;stop-opacity:1"
         id="stop3848" />
      <stop
         offset="0.26238"
         style="stop-color:#fdde76;stop-opacity:1"
         id="stop3850" />
      <stop
         offset="0.66093999"
         style="stop-color:#f9c440;stop-opacity:1"
         id="stop3852" />
      <stop
         offset="1"
         style="stop-color:#e48b20;stop-opacity:1"
         id="stop3854" />
    </linearGradient>
    <linearGradient
       gradientTransform="matrix(0.55048262,0,0,0.57815823,-3.8262247,-5.2762276)"
       gradientUnits="userSpaceOnUse"
       xlink:href="#linearGradient4306"
       id="linearGradient3033"
       y2="31.31304"
       x2="24.046366"
       y1="20.279016"
       x1="24.046366" />
    <linearGradient
       gradientTransform="matrix(0.34959551,0,0,0.3426099,0.65147173,-1.0424648)"
       gradientUnits="userSpaceOnUse"
       xlink:href="#linearGradient8265-821-176-38-919-66-249"
       id="linearGradient3036"
       y2="33.95525"
       x2="15.214532"
       y1="22.292103"
       x1="11.566265" />
    <radialGradient
       gradientTransform="matrix(0,0.92614711,-1.0546317,0,32.402583,-9.3345932)"
       gradientUnits="userSpaceOnUse"
       xlink:href="#linearGradient3846"
       id="radialGradient3039"
       fy="25.625349"
       fx="13.138569"
       r="13.931416"
       cy="25.625349"
       cx="13.138569" />
    <radialGradient
       cx="64.575233"
       cy="48.605404"
       r="31.000002"
       fx="64.575233"
       fy="48.605404"
       id="radialGradient3259"
       xlink:href="#linearGradient3242-7-3-8-0-4-58-06"
       gradientUnits="userSpaceOnUse"
       gradientTransform="matrix(0,0.38528829,-0.41958841,0,32.389496,-16.793007)" />
    <linearGradient
       id="linearGradient3242-7-3-8-0-4-58-06">
      <stop
         id="stop3244-5-8-5-6-4-3-8"
         style="stop-color:#cdf87e;stop-opacity:1"
         offset="0" />
      <stop
         id="stop3246-9-5-1-5-3-0-7"
         style="stop-color:#a2e34f;stop-opacity:1"
         offset="0.26238" />
      <stop
         id="stop3248-7-2-0-7-5-35-9"
         style="stop-color:#68b723;stop-opacity:1"
         offset="0.66093999" />
      <stop
         id="stop3250-8-2-8-5-6-40-4"
         style="stop-color:#1d7e0d;stop-opacity:1"
         offset="1" />
    </linearGradient>
  </defs>
  <metadata
     id="metadata3933">
    <rdf:RDF>
      <cc:Work
         rdf:about="">
        <dc:format>image/svg+xml</dc:format>
        <dc:type
           rdf:resource="http://purl.org/dc/dcmitype/StillImage" />
        <dc:title></dc:title>
      </cc:Work>
    </rdf:RDF>
  </metadata>
  <path
     style="fill:url(#radialGradient3039);fill-opacity:1;fill-rule:nonzero;stroke:none;stroke-width:0.99227136;stroke-linecap:butt;stroke-linejoin:round;stroke-miterlimit:4;stroke-opacity:1;stroke-dasharray:none;stroke-dashoffset:0;marker:none;visibility:visible;display:inline;overflow:visible"
     id="path1307"
     d="m 8.0000006,0.49613568 c 0.5064396,0 2.1391894,4.28357812 2.5489094,4.59622212 0.409717,0.3126432 4.793178,0.6198528 4.949676,1.125721 C 15.655085,6.7239468 12.28072,9.6785531 12.124222,10.18442 11.967724,10.690288 13.409718,15.163733 13,15.476376 12.590282,15.789021 8.5064402,13.33149 7.9999999,13.33149 7.4935604,13.33149 3.4097187,15.789021 3,15.476376 2.5902818,15.163733 4.0322763,10.690287 3.8757779,10.18442 3.7192794,9.6785531 0.34491544,6.7239461 0.50141397,6.218078 0.65791242,5.7122106 5.0413721,5.405001 5.4510908,5.0923578 5.8608088,4.7797138 7.4935611,0.49613568 8.0000006,0.49613568 z" />
  <path
     style="opacity:0.8;fill:url(#linearGradient3036);fill-opacity:1;fill-rule:nonzero;stroke:none;stroke-width:1;marker:none;visibility:visible;display:inline;overflow:visible;enable-background:accumulate"
     id="path3672"
     d="M 7.9779571,1.5107913 C 7.6160496,2.0566486 6.8116998,3.3265895 5.9017588,5.4270645 a 0.1013864,0.0993605 0 0 1 -0.022325,0.021879 0.1013864,0.0993605 0 0 1 -0.022325,0.021879 0.1013864,0.0993605 0 0 1 -0.022325,0 0.1013864,0.0993605 0 0 1 -0.022325,0.021879 0.1013864,0.0993605 0 0 1 -0.022325,-0.021879 0.1013864,0.0993605 0 0 1 -0.022325,0 0.1013864,0.0993605 0 0 1 -0.022325,-0.021879 0.1013864,0.0993605 0 0 1 -0.022325,-0.021879 0.1013864,0.0993605 0 0 1 0,-0.021879 0.1013864,0.0993605 0 0 1 -0.022325,0 c 0.00329,-0.00448 -0.025655,0.00441 -0.022325,0 0.00373,-0.00413 -0.00376,0.02596 0,0.021879 0.00397,-0.00392 -0.026327,0.00385 -0.022325,0 0.00434,-0.0035 -0.00437,0.02533 0,0.021879 0.00449,-0.00329 -0.026842,0.00329 -0.022325,0 0.00487,-0.00273 -0.027223,0.00266 -0.022325,0 0.00494,-0.00259 -0.00497,0.024448 0,0.021879 0.00519,-0.0021 -0.027528,0.0021 -0.022325,0 a 0.1013864,0.0993605 0 0 1 0,0.021879 0.1013864,0.0993605 0 0 1 0.022325,0 0.1013864,0.0993605 0 0 1 0.022325,0.021879 0.1013864,0.0993605 0 0 1 0.022325,0.021879 0.1013864,0.0993605 0 0 1 0,0.021879 0.1013864,0.0993605 0 0 1 0,0.021879 0.1013864,0.0993605 0 0 1 0,0.021879 0.1013864,0.0993605 0 0 1 0,0.021879 0.1013864,0.0993605 0 0 1 -0.022325,0.021879 0.1013864,0.0993605 0 0 1 -0.022325,0.021879 0.1013864,0.0993605 0 0 1 -0.022325,0 C 4.1193308,5.9026204 2.2994763,6.1433377 1.0572961,6.4334811 1.8092349,7.298412 2.6753856,8.1165646 3.5130145,8.9495226 L 14.251202,7.0460825 c 0.0037,-0.00364 0.01862,0.00364 0.02232,0 0.20372,-0.1999237 0.39493,-0.4090518 0.602772,-0.6126014 C 13.457759,6.1022612 11.861871,5.9030943 10.389026,5.6677294 a 0.1013864,0.0993605 0 0 1 -0.02232,0 0.1013864,0.0993605 0 0 1 -0.02232,-0.021879 0.1013864,0.0993605 0 0 1 -0.02233,-0.021879 0.1013864,0.0993605 0 0 1 0,-0.021879 0.1013864,0.0993605 0 0 1 0,-0.021879 0.1013864,0.0993605 0 0 1 0,-0.021879 0.1013864,0.0993605 0 0 1 0,-0.021879 0.1013864,0.0993605 0 0 1 0.02233,-0.021879 0.1013864,0.0993605 0 0 1 0.02232,-0.021879 0.1013864,0.0993605 0 0 1 0.02232,0 0.1013864,0.0993605 0 0 1 0,-0.021879 c 0.0054,0.00189 -0.02765,-0.00189 -0.02232,0 0.0051,0.00245 -0.0274,-0.00245 -0.02232,0 0.005,0.00259 -0.005,-0.024476 0,-0.021879 0.0047,0.00308 -0.02704,-0.00308 -0.02233,0 0.0044,0.00343 -0.0044,-0.025358 0,-0.021879 0.0043,0.00364 -0.0266,-0.00364 -0.02232,0 0.0039,0.00406 -0.0038,-0.025995 0,-0.021879 0.0037,0.0042 -0.02599,-0.0042 -0.02232,0 0.0032,0.00455 -0.0032,-0.026464 0,-0.021879 0.0029,0.00483 -0.02515,-0.00483 -0.02233,0 0.0026,0.0049 -0.0026,-0.0268 0,-0.021879 l -0.0893,0.043757 -0.0893,0.043757 C 9.3727509,3.84779 8.3699477,2.1597098 7.9779571,1.5107913 z" />
  <path
     style="opacity:0.7;fill:none;stroke:url(#linearGradient3033);stroke-width:0.992;stroke-linecap:butt;stroke-linejoin:miter;stroke-miterlimit:4;stroke-opacity:1;stroke-dasharray:none;stroke-dashoffset:0;marker:none;visibility:visible;display:inline;overflow:visible"
     id="path2894"
     d="M 8,2.3125003 C 7.4204974,3.4092238 6.9588891,4.5689462 6.3425158,5.6446934 5.906923,6.2233231 5.14082,6.208774 4.4979816,6.3453057 3.6988865,6.4940441 2.8938979,6.607737 2.09375,6.7500003 c 0.8321477,1.0057613 1.9042251,1.803058 2.6553809,2.8730975 0.2931609,0.5612752 0.086735,1.1940262 0.048954,1.7875722 -0.1300362,0.873671 -0.7822554,2.011403 -0.8721349,2.890749 1.1003565,-0.559851 2.6237664,-1.531888 3.7910708,-1.94011 0.6246409,-0.12796 1.1682081,0.254232 1.7115393,0.49593 0.7264099,0.38268 1.7399469,0.939694 2.4653779,1.324105 -0.123973,-1.302273 -0.773372,-2.733611 -0.799425,-4.042542 0.09173,-0.7298892 0.734153,-1.1887208 1.185876,-1.7078873 C 12.836872,7.884812 13.396785,7.3411772 13.90625,6.7500003 12.695236,6.5344179 11.470554,6.3762266 10.271483,6.1040109 9.5203883,5.8103558 9.33382,4.9605762 8.9786043,4.3239545 8.6518684,3.653685 8.3459188,2.9733088 8,2.3125003 z" />
  <path
     style="display:inline;overflow:visible;visibility:visible;fill:none;fill-opacity:1;fill-rule:evenodd;stroke:#956500;stroke-width:1.00000012px;stroke-linecap:butt;stroke-linejoin:miter;stroke-miterlimit:4;stroke-dasharray:none;stroke-dashoffset:0;stroke-opacity:1;marker:none;color:#000000;clip-rule:nonzero;opacity:0.5;isolation:auto;mix-blend-mode:normal;color-interpolation:sRGB;color-interpolation-filters:linearRGB;solid-color:#000000;solid-opacity:1;filter-blend-mode:normal;filter-gaussianBlur-deviation:0;color-rendering:auto;image-rendering:auto;shape-rendering:auto;text-rendering:auto;enable-background:accumulate"
     id="path1307-4"
     d="m 8.0000006,0.49613568 c 0.5064396,0 2.1391894,4.28357812 2.5489094,4.59622212 0.409717,0.3126432 4.793178,0.6198528 4.949676,1.125721 C 15.655085,6.7239468 12.28072,9.6785531 12.124222,10.18442 11.967724,10.690288 13.409718,15.163733 13,15.476376 12.590282,15.789021 8.5064402,13.33149 7.9999999,13.33149 7.4935604,13.33149 3.4097187,15.789021 3,15.476376 2.5902818,15.163733 4.0322763,10.690287 3.8757779,10.18442 3.7192794,9.6785531 0.34491544,6.7239461 0.50141397,6.218078 0.65791242,5.7122106 5.0413721,5.405001 5.4510908,5.0923578 5.8608088,4.7797138 7.4935611,0.49613568 8.0000006,0.49613568 Z" />
  <g
     id="g4351">
    <path
       d="m 10.5,10.5 0,-2.0072863 3,0 0,2.0072863 2.007286,0 0,3 -2.007286,0 0,2.007286 -3,0 0,-2.007286 -2.0072863,0 0,-3 2.0072863,0 z"
       id="path2262"
       style="color:#000000;display:inline;overflow:visible;visibility:visible;fill:url(#radialGradient3259);fill-opacity:1;fill-rule:nonzero;stroke:none;stroke-width:0.98542738;stroke-linecap:round;stroke-linejoin:round;stroke-miterlimit:4;stroke-dasharray:none;stroke-dashoffset:0;stroke-opacity:1;marker:none;enable-background:accumulate" />
    <path
       d="m 10.5,10.5 0,-2.0072863 3,0 0,2.0072863 2.007286,0 0,3 -2.007286,0 0,2.007286 -3,0 0,-2.007286 -2.0072863,0 0,-3 2.0072863,0 z"
       id="path2262-5"
       style="color:#000000;clip-rule:nonzero;display:inline;overflow:visible;visibility:visible;opacity:0.5;isolation:auto;mix-blend-mode:normal;color-interpolation:sRGB;color-interpolation-filters:linearRGB;solid-color:#000000;solid-opacity:1;fill:none;fill-opacity:1;fill-rule:nonzero;stroke:#0f5a00;stroke-width:1;stroke-linecap:round;stroke-linejoin:round;stroke-miterlimit:4;stroke-dasharray:none;stroke-dashoffset:0;stroke-opacity:1;marker:none;color-rendering:auto;image-rendering:auto;shape-rendering:auto;text-rendering:auto;enable-background:accumulate" />
    <rect
       y="9"
       x="11"
       height="1"
       width="2"
       id="rect4304"
       style="color:#000000;clip-rule:nonzero;display:inline;overflow:visible;visibility:visible;opacity:0.5;isolation:auto;mix-blend-mode:normal;color-interpolation:sRGB;color-interpolation-filters:linearRGB;solid-color:#000000;solid-opacity:1;fill:#ffffff;fill-opacity:1;fill-rule:nonzero;stroke:none;stroke-width:1;stroke-linecap:round;stroke-linejoin:round;stroke-miterlimit:4;stroke-dasharray:none;stroke-dashoffset:0;stroke-opacity:1;marker:none;color-rendering:auto;image-rendering:auto;shape-rendering:auto;text-rendering:auto;enable-background:accumulate" />
    <rect
       y="14"
       x="11"
       height="1"
       width="2"
       id="rect4304-6"
       style="color:#000000;clip-rule:nonzero;display:inline;overflow:visible;visibility:visible;opacity:0.2;isolation:auto;mix-blend-mode:normal;color-interpolation:sRGB;color-interpolation-filters:linearRGB;solid-color:#000000;solid-opacity:1;fill:#ffffff;fill-opacity:1;fill-rule:nonzero;stroke:none;stroke-width:1;stroke-linecap:round;stroke-linejoin:round;stroke-miterlimit:4;stroke-dasharray:none;stroke-dashoffset:0;stroke-opacity:1;marker:none;color-rendering:auto;image-rendering:auto;shape-rendering:auto;text-rendering:auto;enable-background:accumulate" />
    <rect
       y="11"
       x="9"
       height="1"
       width="2"
       id="rect4304-6-2"
       style="color:#000000;clip-rule:nonzero;display:inline;overflow:visible;visibility:visible;opacity:0.4;isolation:auto;mix-blend-mode:normal;color-interpolation:sRGB;color-interpolation-filters:linearRGB;solid-color:#000000;solid-opacity:1;fill:#ffffff;fill-opacity:1;fill-rule:nonzero;stroke:none;stroke-width:1;stroke-linecap:round;stroke-linejoin:round;stroke-miterlimit:4;stroke-dasharray:none;stroke-dashoffset:0;stroke-opacity:1;marker:none;color-rendering:auto;image-rendering:auto;shape-rendering:auto;text-rendering:auto;enable-background:accumulate" />
    <rect
       y="11"
       x="13"
       height="1"
       width="2"
       id="rect4304-6-2-4"
       style="color:#000000;clip-rule:nonzero;display:inline;overflow:visible;visibility:visible;opacity:0.4;isolation:auto;mix-blend-mode:normal;color-interpolation:sRGB;color-interpolation-filters:linearRGB;solid-color:#000000;solid-opacity:1;fill:#ffffff;fill-opacity:1;fill-rule:nonzero;stroke:none;stroke-width:1;stroke-linecap:round;stroke-linejoin:round;stroke-miterlimit:4;stroke-dasharray:none;stroke-dashoffset:0;stroke-opacity:1;marker:none;color-rendering:auto;image-rendering:auto;shape-rendering:auto;text-rendering:auto;enable-background:accumulate" />
  </g>
</svg>

<svg xmlns="http://www.w3.org/2000/svg" xmlns:xlink="http://www.w3.org/1999/xlink" viewBox="0 0 16 16"><defs><linearGradient id="a"><stop offset="0" stop-color="#fff"/><stop offset=".153" stop-color="#fff" stop-opacity=".235"/><stop offset=".679" stop-color="#fff" stop-opacity=".157"/><stop offset="1" stop-color="#fff" stop-opacity=".392"/></linearGradient><linearGradient id="b"><stop offset="0" stop-color="#fff" stop-opacity=".275"/><stop offset="1" stop-color="#fff" stop-opacity="0"/></linearGradient><linearGradient id="c"><stop offset="0" stop-color="#fff3cb"/><stop offset=".262" stop-color="#fdde76"/><stop offset=".661" stop-color="#f9c440"/><stop offset="1" stop-color="#e48b20"/></linearGradient><linearGradient gradientTransform="matrix(.55048 0 0 .57816 -3.826 -5.276)" gradientUnits="userSpaceOnUse" xlink:href="#a" id="g" y2="31.313" x2="24.046" y1="20.279" x1="24.046"/><linearGradient gradientTransform="matrix(.3496 0 0 .3426 .65 -1.042)" gradientUnits="userSpaceOnUse" xlink:href="#b" id="f" y2="33.955" x2="15.215" y1="22.292" x1="11.566"/><radialGradient gradientTransform="matrix(0 .92615 -1.05463 0 32.403 -9.335)" gradientUnits="userSpaceOnUse" xlink:href="#c" id="e" fy="25.625" fx="13.139" r="13.931" cy="25.625" cx="13.139"/><radialGradient cx="64.575" cy="48.605" r="31" fx="64.575" fy="48.605" id="h" xlink:href="#d" gradientUnits="userSpaceOnUse" gradientTransform="matrix(0 .3853 -.4196 0 32.39 -16.793)"/><linearGradient id="d"><stop offset="0" stop-color="#cdf87e"/><stop offset=".262" stop-color="#a2e34f"/><stop offset=".661" stop-color="#68b723"/><stop offset="1" stop-color="#1d7e0d"/></linearGradient></defs><path d="M8 .496c.506 0 2.14 4.284 2.55 4.596.41.313 4.792.62 4.95 1.126.155.506-3.22 3.46-3.376 3.966-.156.506 1.286 4.98.876 5.292-.41.313-4.494-2.145-5-2.145-.506 0-4.59 2.46-5 2.15-.41-.31 1.032-4.78.876-5.29C3.72 9.68.346 6.73.5 6.22c.158-.506 4.54-.813 4.95-1.126C5.86 4.78 7.495.497 8 .497z" fill="url(#e)" overflow="visible"/><path d="M7.978 1.51c-.362.547-1.166 1.817-2.076 3.917a.1.1 0 0 1-.023.022.1.1 0 0 1-.03.02.1.1 0 0 1-.02 0 .1.1 0 0 1-.026.02.1.1 0 0 1-.02-.02.1.1 0 0 1-.024 0 .1.1 0 0 1-.022-.02.1.1 0 0 1-.02-.03.1.1 0 0 1 0-.02.1.1 0 0 1-.02 0c.002-.006-.027.003-.02 0 0-.006-.007.024 0 .02 0-.004-.03.004-.026 0 .005-.003-.004.025 0 .022.005-.005-.027 0-.022 0 .005-.005-.027 0-.022 0 .007-.005-.002.022 0 .02.008 0-.025.002-.02 0a.1.1 0 0 1 0 .022.1.1 0 0 1 .02 0 .1.1 0 0 1 .02.02.1.1 0 0 1 .024.02.1.1 0 0 1 0 .024.1.1 0 0 1 0 .023.1.1 0 0 1 0 .02.1.1 0 0 1 0 .024.1.1 0 0 1-.022.02.1.1 0 0 1-.02.023.1.1 0 0 1-.023 0c-1.47.233-3.29.473-4.535.763.752.864 1.618 1.683 2.456 2.516l10.74-1.9c.006-.005.02.003.025 0 .203-.2.394-.41.602-.614-1.418-.33-3.014-.53-4.487-.766a.1.1 0 0 1-.026 0 .1.1 0 0 1-.023-.02.1.1 0 0 1-.02-.02.1.1 0 0 1 0-.02.1.1 0 0 1 0-.023.1.1 0 0 1 0-.022.1.1 0 0 1 0-.02.1.1 0 0 1 .023-.02.1.1 0 0 1 .023-.023.1.1 0 0 1 .022 0 .1.1 0 0 1 0-.022c0 .004-.03 0-.027 0 .006.004-.027 0-.022 0 .007.004-.003-.023 0-.02.007.003-.025-.003-.02 0 .005.003-.003-.025 0-.022.005.005-.026-.003-.02 0 .003.005-.005-.025 0-.02 0 .003-.027-.005-.024 0 .004.004-.003-.027 0-.023.003.008-.025-.002-.022 0 .003.008-.003-.023 0-.02l-.09.046-.09.044c-.7-1.603-1.703-3.29-2.093-3.94z" opacity=".8" fill="url(#f)" overflow="visible"/><path d="M8 2.313C7.42 3.41 6.96 4.57 6.343 5.645c-.436.578-1.202.564-1.845.7-.8.15-1.604.263-2.404.405.832 1.006 1.904 1.803 2.655 2.873.29.56.08 1.194.04 1.788-.13.88-.78 2.02-.87 2.89 1.1-.55 2.622-1.53 3.79-1.94.624-.12 1.17.26 1.71.5.726.39 1.74.94 2.465 1.33-.124-1.3-.773-2.732-.8-4.04.092-.73.735-1.19 1.186-1.71.558-.545 1.118-1.09 1.627-1.68-1.21-.216-2.436-.374-3.636-.646-.75-.294-.936-1.143-1.29-1.78-.33-.67-.634-1.35-.98-2.01z" opacity=".7" fill="none" stroke="url(#g)" stroke-width=".992" overflow="visible"/><path style="isolation:auto;mix-blend-mode:normal;filter-blend-mode:normal;filter-gaussianBlur-deviation:0" d="M8 .496c.506 0 2.14 4.284 2.55 4.596.41.313 4.792.62 4.95 1.126.155.506-3.22 3.46-3.376 3.966-.156.506 1.286 4.98.876 5.292-.41.313-4.494-2.145-5-2.145-.506 0-4.59 2.46-5 2.15-.41-.31 1.032-4.78.876-5.29C3.72 9.68.346 6.73.5 6.22c.158-.506 4.54-.813 4.95-1.126C5.86 4.78 7.495.497 8 .497z" overflow="visible" fill="none" stroke="#956500" color="#000" opacity=".5"/><g color="#000"><path d="M10.5 10.5V8.493h3V10.5h2.007v3H13.5v2.007h-3V13.5H8.493v-3H10.5z" overflow="visible" fill="url(#h)"/><path d="M10.5 10.5V8.493h3V10.5h2.007v3H13.5v2.007h-3V13.5H8.493v-3H10.5z" style="isolation:auto;mix-blend-mode:normal" overflow="visible" opacity=".5" fill="none" stroke="#0f5a00" stroke-linecap="round" stroke-linejoin="round"/><path style="isolation:auto;mix-blend-mode:normal" overflow="visible" opacity=".5" fill="#fff" d="M11 9h2v1h-2z"/><path style="isolation:auto;mix-blend-mode:normal" overflow="visible" opacity=".2" fill="#fff" d="M11 14h2v1h-2z"/><path style="isolation:auto;mix-blend-mode:normal" overflow="visible" opacity=".4" fill="#fff" d="M9 11h2v1H9zm4 0h2v1h-2z"/></g></svg>
